X: 0
T: O Holy Night
Z: Adolphe Adam (1803-1856)
Z: Public  domain
L: 1/4
M: none
Q: 1/4=77
V: P1_1 name="Staff 1"
V: P1_2
%%MIDI program 1 -1
V: P2_1 name="Staff 2"
V: P2_2
%%MIDI program 2 -1
V: P3_1 name="Staff 3"
V: P3_2
%%MIDI program 3 -1
V: P4_1 name="O Holy Night"
V: P4_2
%%MIDI program 4 -1
K: Db
% Extracting voice 1 from part P1
[V: P1_1]  | | | | | | | | | | | | | | | | |[|: d3 c3/4 B/4 | c3 c/ c/ | e2- e3/4 B/4 B3/4 B/4 | d2 dz/ d/ | f2 e3/ | d2 d c3/4 B/4 | A2- A3/4 A/4 B3/4 A/4 | A3 d[1  e3z/ A/ | f3 e | d2 c d3/4 e/4 | d3z :|][2  e3 e | a2- a/g/ f/e/ | d2 c d3/4 e/4 ||]|] Z 
% Extracting voice 2 from part P1
[V: P1_2]  | | | | | | | | | | | | | | | | |[|: F3 F3/4 F/4 | A3 F/ F/ | G2- G3/4 G/4 G3/4 G/4 | F2 F x0  F/ | A2 A3/ A/ | A2 B A3/4 G/4 | F2 G3/4 G/4 G3/4 G/4 | F3 A[1  A3 x0  | A2 B B | A2 G G3/4 G/4 | F3 x1  :|][2  A3 A | A2 B B | A2 G F3/4 G/4 ||]|] Z 
% Extracting voice 1 from part P2
[V: P2_1]  | | | | | | | | | | | | | | | | |[|: | | | | | | |[1  | [F,2D2] [G,D] D/E/ | | :|][2  | D _C B, [G,E] | ||]|] Z 
% Extracting voice 2 from part P2
[V: P2_2]  | | | | | | | | | | | | | | | | |[|: | | | | | | |[1  | x3  G, | | :|][2  | F,2 G, x1  | ||]|] Z 
% Extracting voice 1 from part P3
[V: P3_1]  | A A3/4A/4 B G3/4B/4 | [=E2d2] [E/)d/)] [(=e/(b/][e/c'/][e/)d'/)] | (f'/d'/a/f/) (f _e) | | | | | | | | | | | | | |[|: (d/e/f/d/ B/d/ c/f/4B/4 | A/-c/f/=g/) (a/g/f/c/ | e/B/e/f/ g/a/b/c'/ | d'/b/d'/e'/ [bd'] [F)d)] | | | |[1  | f3 [FB] e | | :|][2  | [A-da-] [Ada] a/g/f/e/ | ||]|] Z 
% Extracting voice 2 from part P3
[V: P3_2]  | D2 D2 | x2  =G/ B/ G/ B/ G/ B/ | A2 d2 f2 c2 | | | | | | | | | | | | | |[|: F3 F | A/ A2 A/ A/ | _G2 B e | d3 x2  | | | |[1  | F2 A2 x1  E B | | :|][2  | x2  _c d B | ||]|] Z 
% Extracting voice 1 from part P4
[V: P4_1]  | | | | | | | | | | | | | | (C, A,, C, A,, | D, A,, D, A,, | C, A,, C, A,, | D, A,,) [D,,A,,]z[|: [(B,3(D3] E3/4D/4 | | B,3 G, | | | | |[1  | | | :|][2  | | ||]|] Z 
% Extracting voice 2 from part P4
[V: P4_2]  | | | | | | | | | | | | | | C,,4 | D,,4 | C,,4 | D,,2 x2 [|: x3  B, | | E,4 | | | | |[1  | | | :|][2  | | ||]|] Z 

